X:1
T:Title
%%score { ( 1 3 4 ) | ( 2 5 ) }
L:1/8
M:4/4
K:C
V:1 treble nm="Grand Piano"
V:3 treble 
V:4 treble 
V:2 bass 
V:5 bass 
V:1
 z4 z2[Q:1/4=100] [CE]>[DF] | [EG]>[EG] [EG]>[EG] [EG]2 [Ec]>[FA] | [EG]2 [CE]2 [EG]2 [CE]>[EG] | %3
 G>F F>E F2 G2 |[M:3/4] E6 |[M:1/4] E>[DF] |[M:4/4] [EG]>[EG] [EG]>[EG] [EG]2 [Ec]>[GB] | %7
 A2 A2 A2 A>A | G>G c>c B2 d2 | [Ec]6 z2 | [EG]6 z2 | [EG]6 z2 | [DF]6[K:bass][K:treble] z2 | %13
[M:3/4] [CE]6 |[M:1/4] E>[DF] |[M:4/4] [EG]>[EG] [EG]>[EG] [EG]2 [Ec]>[GB] | A2 A2 A2 A>A | %17
 G>G c>c B2 d2 |[M:8/4] [Ec]8 z8 |] %19
V:2
 z4 z2 [C,G,]>[C,G,] | [C,C]>[C,C] [C,C]>[C,C] [C,C]2 [C,G,]>[C,C] | %2
 [C,C]2 [C,G,]2 [C,C]2 [C,G,]>[C,G,] | [G,E]>[G,D] [G,D]>[G,C] [G,B,D]2 [G,B,]2 |[M:3/4] [C,G,C]6 | %5
[M:1/4] [C,G,C]>[C,G,] |[M:4/4] [C,C]>[C,C] [C,C]>[C,C] [C,C]2 [C,G,]>[E,C] | %7
 [F,CF]2 [F,CF]2 [F,CF]2 [F,CF]>[F,CF] | [G,CE]>[G,CE] [G,E]>[G,E] [G,D]2 [G,F]2 | [C,G,]6 z2 | %10
 [C,C]>C, C,>C, z z/[K:treble] D/ C>F | C,>C, C,>C, C,2 z2 | G,>G, G,>G, z z/ C/ B,>E | %13
[M:3/4] C,>C, C,>C, C,2 |[M:1/4] [C,G,C]>[C,G,] | %15
[M:4/4] [C,C]>[C,C] [C,C]>[C,C] [C,C]2 [C,G,]>[E,C] | [F,CF]2 [F,CF]2 [F,CF]2 [F,CF]>[F,CF] | %17
 [G,CE]>[G,CE] [G,E]>[G,E] [G,D]2 [G,F]2 |[M:8/4][K:bass] [C,G,]8 z8 |] %19
V:3
 x8 | x8 | x8 | x8 |[M:3/4] x6 |[M:1/4] x2 |[M:4/4] x8 | x8 | x8 | x8 | z z/ C/ C>C z z/ F/ E>A | %11
 C>C C>C C2 z2 | B,>[K:bass]B, B,>B, z z/ E/[K:treble] D>G |[M:3/4] G,>G, G,>G, G,2 |[M:1/4] x2 | %15
[M:4/4] x8 | x8 | x8 |[M:8/4] x16 |] %19
V:4
 x8 | x8 | x8 | x8 |[M:3/4] x6 |[M:1/4] x2 |[M:4/4] x8 | x8 | x8 | x8 | z4 C2 z2 | x8 | %12
 z4[K:bass] B,2[K:treble] z2 |[M:3/4] x6 |[M:1/4] x2 |[M:4/4] x8 | x8 | x8 |[M:8/4] x16 |] %19
V:5
 x8 | x8 | x8 | x8 |[M:3/4] x6 |[M:1/4] x2 |[M:4/4] x8 | x8 | x8 | x8 | z4 C,2[K:treble] z2 | x8 | %12
 z4 G,2 z2 |[M:3/4] x6 |[M:1/4] x2 |[M:4/4] x8 | x8 | x8 |[M:8/4][K:bass] x16 |] %19

